public/logo-md.svg

<svg width="324" height="68" viewBox="0 0 324 68" fill="none" xmlns="http://www.w3.org/2000/svg">
<path d="M128.442 41.3078C125.071 41.3078 122.282 41.029 120.038 40.4839C117.808 39.9389 116.134 39.0516 115.019 37.8474C113.903 36.6432 113.346 35.0588 113.346 33.0814C113.346 31.1167 113.903 29.5195 115.019 28.3027C116.134 27.0858 117.808 26.1985 120.038 25.6408C122.269 25.0831 125.071 24.8042 128.442 24.8042C131.789 24.8042 134.565 25.0831 136.783 25.6408C139.001 26.1985 140.649 27.0858 141.752 28.3027C142.855 29.5195 143.4 31.1167 143.4 33.0814C143.4 35.0461 142.842 36.6432 141.752 37.8474C140.649 39.0516 138.988 39.9389 136.783 40.4839C134.565 41.029 131.789 41.3078 128.442 41.3078ZM128.442 36.7066C130.014 36.7066 131.32 36.5799 132.384 36.3137C133.449 36.0475 134.248 35.6419 134.793 35.1095C135.338 34.5644 135.617 33.8926 135.617 33.0941C135.617 32.2955 135.351 31.611 134.806 31.066C134.26 30.5209 133.462 30.1026 132.41 29.8237C131.358 29.5449 130.027 29.4055 128.442 29.4055C126.871 29.4055 125.552 29.5449 124.462 29.8237C123.372 30.1026 122.548 30.5082 121.99 31.0406C121.433 31.5857 121.154 32.2575 121.154 33.0941C121.154 33.9053 121.433 34.5771 121.978 35.1095C122.523 35.6545 123.347 36.0475 124.437 36.3137C125.514 36.5672 126.858 36.7066 128.442 36.7066Z" fill="#75F7BB"/>
<path d="M158.546 37.9739L154.921 37.9105L162.919 25.2729H171.336L160.258 40.8386H153.083L142.512 25.2729H150.89L158.546 37.9739Z" fill="#75F7BB"/>
<path d="M191.922 35.2357H199.413C199.223 36.4652 198.615 37.53 197.588 38.4426C196.561 39.3553 195.066 40.0524 193.114 40.5594C191.162 41.0538 188.665 41.3073 185.635 41.3073C182.441 41.3073 179.678 41.0538 177.358 40.5468C175.038 40.0398 173.251 39.1778 172.009 37.9736C170.767 36.7695 170.133 35.1343 170.133 33.0808C170.133 31.0527 170.741 29.4302 171.958 28.2007C173.175 26.9839 174.937 26.1093 177.244 25.5769C179.551 25.0445 182.352 24.7783 185.622 24.7783C188.842 24.7783 191.479 25.0699 193.532 25.6403C195.585 26.2107 197.094 27.136 198.07 28.4162C199.046 29.6965 199.515 31.433 199.464 33.6132H177.865C177.966 34.1583 178.271 34.678 178.765 35.1343C179.259 35.6033 180.032 35.9709 181.085 36.2624C182.137 36.554 183.531 36.6934 185.293 36.6934C187.118 36.6934 188.614 36.5667 189.78 36.3131C190.984 36.0596 191.694 35.7047 191.922 35.2357ZM185.318 29.3922C183.075 29.3922 181.363 29.6331 180.185 30.1274C179.006 30.6091 178.321 31.1034 178.106 31.5851H192.074C191.922 31.0401 191.326 30.533 190.3 30.0767C189.26 29.6204 187.6 29.3922 185.318 29.3922Z" fill="#75F7BB"/>
<path d="M200.807 25.2726H208.425V40.8383H200.807V25.2726ZM216.626 31.1415C215.244 31.1415 213.989 31.2682 212.848 31.5217C211.708 31.7752 210.732 32.0795 209.92 32.4217C209.122 32.7766 208.513 33.1189 208.108 33.4484L208.044 31.9273C208.108 31.4837 208.273 30.964 208.551 30.3556C208.83 29.7472 209.198 29.126 209.667 28.4796C210.136 27.8331 210.706 27.2247 211.378 26.667C212.05 26.1092 212.836 25.6529 213.71 25.298C214.585 24.9431 215.561 24.7783 216.613 24.7783V31.1415H216.626Z" fill="#75F7BB"/>
<path d="M251.053 30.0263L233.877 37.4288L233.586 36.0599H251.243V40.8259H226.602V36.0599L243.65 28.6573L243.942 30.0263H226.602V25.2603H251.053V30.0263Z" fill="#75F7BB"/>
<path d="M264.896 41.2693C262.614 41.2693 260.573 40.9524 258.799 40.306C257.024 39.6595 255.617 38.7215 254.59 37.492C253.564 36.2624 253.057 34.7794 253.057 33.0428C253.057 31.2175 253.564 29.6965 254.59 28.4669C255.617 27.2374 257.024 26.3247 258.799 25.7036C260.573 25.0825 262.614 24.7783 264.896 24.7783C267.431 24.7783 269.636 25.1206 271.487 25.805C273.338 26.4895 274.77 27.4529 275.771 28.6951C276.773 29.9373 277.28 31.3823 277.28 33.0301C277.28 34.2597 276.988 35.3751 276.418 36.3765C275.847 37.3779 275.024 38.2525 273.946 38.975C272.869 39.7102 271.563 40.2679 270.042 40.6609C268.508 41.0792 266.797 41.2693 264.896 41.2693ZM267.748 36.4526C269.357 36.4526 270.828 36.3512 272.171 36.1484C273.515 35.9455 274.592 35.6033 275.416 35.1216C276.228 34.64 276.633 33.9428 276.633 33.0555C276.633 32.1429 276.228 31.4457 275.416 30.964C274.605 30.4824 273.515 30.1401 272.171 29.95C270.828 29.7598 269.357 29.6584 267.748 29.6584C265.593 29.6584 263.92 29.9373 262.728 30.495C261.537 31.0527 260.954 31.902 260.954 33.0555C260.954 33.7907 261.22 34.4244 261.752 34.9315C262.284 35.4385 263.058 35.8188 264.072 36.0723C265.086 36.3258 266.315 36.4526 267.748 36.4526ZM276.646 25.2726H284.264V40.8383H277.09C276.937 39.8623 276.823 38.9243 276.76 38.0117C276.684 37.099 276.646 36.0343 276.646 34.8047V25.2726Z" fill="#75F7BB"/>
<path d="M286.229 18.9224H293.847V40.8385H286.229V18.9224ZM313.164 25.2728L300.59 34.0063L300.755 29.8741L314.254 40.8258H304.608L293.999 31.9655L303.087 25.2602H313.164V25.2728Z" fill="#75F7BB"/>
<path d="M323.001 17.1099V21.8759H314.939V17.1099H323.001ZM315.155 25.273H322.773V40.8386H315.155V25.273Z" fill="#75F7BB"/>
<path d="M84.1696 22.2432C84.1696 22.2432 90.4821 22.2432 90.4821 33.1315C90.5582 38.1511 89.5314 44.0199 83.9922 44.0199" fill="#75F7BB"/>
<path d="M6.31626 43.8048C6.31626 43.8048 0.00380413 43.8048 0.00380413 32.9164C-0.0722496 27.8969 0.954474 22.0281 6.49372 22.0281" fill="#75F7BB"/>
<path d="M72.7757 5.79052C72.7376 5.77784 72.6869 5.75248 72.6489 5.73981C72.4081 5.6384 72.1799 5.54967 71.9264 5.46094C63.6619 2.21598 54.6622 0.441406 45.2315 0.441406C35.8262 0.441406 26.8139 2.21598 18.5494 5.46094C18.3085 5.54967 18.0804 5.6384 17.8268 5.73981C17.7888 5.76516 17.7381 5.77784 17.7001 5.79052C17.3198 5.94263 16.9522 6.10743 16.5846 6.28489C9.79049 9.5552 5.68359 16.6409 5.68359 24.1829V44.0709C5.68359 51.6129 9.80317 58.7239 16.61 61.9816C16.9649 62.159 17.3325 62.3111 17.7001 62.4632C17.7381 62.4886 17.7888 62.5012 17.8268 62.5139C18.0677 62.6153 18.2958 62.7041 18.5494 62.7928C26.8139 66.0377 35.8135 67.825 45.2315 67.825C54.6495 67.825 63.6619 66.0377 71.9264 62.7928C72.1672 62.7041 72.3954 62.6153 72.6489 62.5139C72.6869 62.5012 72.7376 62.4759 72.7757 62.4632C73.1432 62.3111 73.5108 62.1463 73.8658 61.9816C80.6726 58.7239 84.7921 51.6129 84.7921 44.0709V24.1829C84.7921 16.6535 80.6852 9.5552 73.8911 6.28489C73.5235 6.1201 73.1559 5.94263 72.7757 5.79052ZM74.2207 44.5399C73.8531 48.9637 70.2659 52.5002 65.8294 52.779L61.976 53.0199C54.3073 53.5142 36.1558 53.5142 28.4744 53.0199L24.6336 52.779C20.2099 52.5002 16.5973 48.9637 16.2424 44.5399C15.748 38.3669 15.748 29.8869 16.2424 23.7139C16.5973 19.3027 20.1972 15.7536 24.6336 15.4747L28.4744 15.2339C32.3151 14.993 38.767 14.8663 45.2189 14.8663C51.6834 14.8663 58.1353 14.993 61.9633 15.2339L65.8167 15.4747C70.2405 15.7662 73.8404 19.3027 74.208 23.7139C74.715 29.8869 74.715 38.3669 74.2207 44.5399Z" fill="#75F7BB"/>
<path d="M60.2512 23.4985H30.4762V30.749H43.3927L30.248 38.4304V44.7809H59.9977V37.4924H47.0559L60.2512 29.849V23.4985Z" fill="#75F7BB"/>
</svg>

<svg xmlns="http://www.w3.org/2000/svg" width="324" height="68" fill="#75f7bb" xmlns:v="https://vecta.io/nano"><path d="M128.442 41.308c-3.371 0-6.16-.279-8.404-.824-2.23-.545-3.904-1.432-5.019-2.636s-1.673-2.789-1.673-4.766c0-1.965.557-3.562 1.673-4.779s2.789-2.104 5.019-2.662 5.033-.837 8.404-.837c3.347 0 6.123.279 8.341.837s3.866 1.445 4.969 2.662 1.648 2.814 1.648 4.779-.558 3.562-1.648 4.766c-1.103 1.204-2.764 2.091-4.969 2.636-2.218.545-4.994.824-8.341.824zm0-4.601c1.572 0 2.878-.127 3.942-.393s1.864-.672 2.409-1.204c.545-.545.824-1.217.824-2.015s-.266-1.483-.811-2.028-1.344-.963-2.396-1.242-2.383-.418-3.968-.418c-1.571 0-2.89.139-3.98.418s-1.914.684-2.472 1.217c-.557.545-.836 1.217-.836 2.053 0 .811.279 1.483.824 2.015.545.545 1.369.938 2.459 1.204 1.077.254 2.421.393 4.005.393zm30.104 1.267l-3.625-.063 7.998-12.638h8.417l-11.078 15.566h-7.175l-10.571-15.566h8.378l7.656 12.701zm33.376-2.738h7.491c-.19 1.23-.798 2.294-1.825 3.207s-2.522 1.61-4.474 2.117c-1.952.494-4.449.748-7.479.748-3.194 0-5.957-.253-8.277-.761s-4.107-1.369-5.349-2.573-1.876-2.839-1.876-4.893c0-2.028.608-3.651 1.825-4.88 1.217-1.217 2.979-2.091 5.286-2.624s5.108-.799 8.378-.799c3.22 0 5.857.292 7.91.862s3.562 1.496 4.538 2.776 1.445 3.017 1.394 5.197h-21.599c.101.545.406 1.065.9 1.521.494.469 1.267.837 2.32 1.128s2.446.431 4.208.431c1.825 0 3.321-.127 4.487-.38 1.204-.253 1.914-.608 2.142-1.077zm-6.604-5.844c-2.243 0-3.955.241-5.133.735-1.179.482-1.864.976-2.079 1.458h13.968c-.152-.545-.748-1.052-1.774-1.508-1.04-.456-2.7-.684-4.982-.684zm15.489-4.119h7.618v15.566h-7.618V25.273zm15.819 5.869c-1.382 0-2.637.127-3.778.38s-2.116.558-2.928.9c-.798.355-1.407.697-1.812 1.027l-.064-1.521c.064-.444.229-.963.507-1.572s.647-1.23 1.116-1.876a9.99 9.99 0 0 1 1.711-1.813c.672-.558 1.458-1.014 2.332-1.369s1.851-.52 2.903-.52v6.363h.013zm34.427-1.116l-17.176 7.403-.291-1.369h17.657v4.766h-24.641V36.06l17.048-7.403.292 1.369h-17.34V25.26h24.451v4.766zm13.843 11.243c-2.282 0-4.323-.317-6.097-.963s-3.182-1.584-4.209-2.814-1.533-2.713-1.533-4.449c0-1.825.507-3.346 1.533-4.576s2.434-2.142 4.209-2.763 3.815-.925 6.097-.925c2.535 0 4.74.342 6.591 1.027s3.283 1.648 4.284 2.89 1.509 2.687 1.509 4.335c0 1.23-.292 2.345-.862 3.346s-1.394 1.876-2.472 2.599c-1.077.735-2.383 1.293-3.904 1.686-1.534.418-3.245.608-5.146.608zm2.852-4.817c1.609 0 3.08-.101 4.423-.304s2.421-.545 3.245-1.027c.812-.482 1.217-1.179 1.217-2.066 0-.913-.405-1.61-1.217-2.092s-1.901-.824-3.245-1.014-2.814-.292-4.423-.292c-2.155 0-3.828.279-5.02.837s-1.774 1.407-1.774 2.561a2.5 2.5 0 0 0 .798 1.876c.532.507 1.306.887 2.32 1.141s2.243.38 3.676.38zm8.898-11.18h7.618v15.566h-7.174l-.33-2.827-.114-3.207v-9.532zm9.583-6.35h7.618v21.916h-7.618V18.922zm26.935 6.35l-12.574 8.734.165-4.132 13.499 10.952h-9.646l-10.609-8.86 9.088-6.705h10.077v.013zm9.837-8.162v4.766h-8.062V17.11h8.062zm-7.846 8.163h7.618v15.566h-7.618V25.273zM84.17 22.243s6.313 0 6.313 10.888c.076 5.02-.951 10.888-6.49 10.888m-77.677-.214s-6.312 0-6.312-10.888c-.076-5.02.951-10.888 6.49-10.888"/><path d="M72.776 5.791c-.038-.013-.089-.038-.127-.051l-.722-.279C63.662 2.216 54.662.441 45.232.441c-9.405 0-18.418 1.775-26.682 5.02a27.55 27.55 0 0 0-.723.279c-.038.025-.089.038-.127.051a17.92 17.92 0 0 0-1.116.494c-6.794 3.27-10.9 10.356-10.9 17.898v19.888c0 7.542 4.12 14.653 10.926 17.911.355.177.723.33 1.09.482.038.025.089.038.127.051a12.18 12.18 0 0 0 .723.279 72.85 72.85 0 0 0 26.682 5.032c9.418 0 18.43-1.787 26.695-5.032a27.48 27.48 0 0 0 .722-.279c.038-.013.089-.038.127-.051a28.56 28.56 0 0 0 1.09-.482c6.807-3.258 10.926-10.369 10.926-17.911V24.183c0-7.529-4.107-14.628-10.901-17.898-.368-.165-.735-.342-1.115-.494zm1.445 38.749a9.03 9.03 0 0 1-8.391 8.239l-3.853.241c-7.669.494-25.82.494-33.502 0l-3.841-.241a9.03 9.03 0 0 1-8.391-8.239c-.494-6.173-.494-14.653 0-20.826a9.03 9.03 0 0 1 8.391-8.239l3.841-.241c3.841-.241 10.293-.368 16.745-.368 6.465 0 12.916.127 16.744.368l3.853.241a9.06 9.06 0 0 1 8.391 8.239c.507 6.173.507 14.653.013 20.826zm-13.97-21.041H30.476v7.25h12.917L30.248 38.43v6.351h29.75v-7.288H47.056l13.195-7.643V23.5z"/></svg>
